Sources/FrostedUI/Resources/Icons.xcassets/chevronLeftToLineInBoxSize32.imageset/chevron-left-to-line-in-box-size-32.svg

<svg
  width="32"
  height="32"
  viewBox="0 0 32 32"
  fill="none"
  xmlns="http://www.w3.org/2000/svg"
  data-fui-icon="true"
>
  <path
    d="M3.25 22.25V9.75C3.25 5.88401 6.38401 2.75 10.25 2.75H22.75C26.616 2.75 29.75 5.88401 29.75 9.75V22.25C29.75 26.116 26.616 29.25 22.75 29.25H10.25C6.38401 29.25 3.25 26.116 3.25 22.25Z"
    stroke="currentColor"
    stroke-width="1.5"
    stroke-linecap="round"
    stroke-linejoin="round"
  />
  <path
    d="M11.75 10.25V21.7499M22.25 10.25L15.75 16L22.25 21.7499"
    stroke="currentColor"
    stroke-width="1.5"
    stroke-linecap="round"
    stroke-linejoin="round"
  />
</svg>

<svg xmlns="http://www.w3.org/2000/svg" width="32" height="32" fill="none" data-fui-icon="true" viewBox="0 0 32 32"><path stroke="currentColor" stroke-linecap="round" stroke-linejoin="round" stroke-width="1.5" d="M3.25 22.25V9.75a7 7 0 0 1 7-7h12.5a7 7 0 0 1 7 7v12.5a7 7 0 0 1-7 7h-12.5a7 7 0 0 1-7-7"/><path stroke="currentColor" stroke-linecap="round" stroke-linejoin="round" stroke-width="1.5" d="M11.75 10.25v11.5m10.5-11.5L15.75 16l6.5 5.75"/></svg>
